X: 25591
T: Marmalade, The
R: polka
M: 2/4
K: Gmajor
|:D|GG G/A/B/c/|dd de/d/|cc cd/c/|BB B>A|
GG G/A/B/c/|dd de/d/|cA AF|AG G:|
|:d|ed BG|GF Fd|ed cA|AG GB/d/|
gg ga/g/|fe e>e|de/d/ cF|AG G:|

